usr/share/icons/biglinux-icons-material/scalable/apps/kitty.svg

<svg width="64" height="64" viewBox="0 0 16.933 16.933" xmlns="http://www.w3.org/2000/svg"><g stroke-width="0"><g fill-rule="evenodd" stroke-linecap="round" stroke-linejoin="round"><rect x="5.091" y="2.614" width="7.181" height="5.289" ry="0" fill="#fff"/><path d="M6.777 6.048c.133 0 .239-.252.239-.577s-.106-.577-.24-.577-.239.252-.239.577.107.577.24.577z" clip-rule="evenodd" fill="#c0c81f"/><path d="M13.634 1.72c-.325-.343-1.804.072-2.706.631a5.407 5.407 0 0 0-2.454-.577c-.92 0-1.768.216-2.471.577-.902-.56-2.4-.992-2.706-.631-.325.36.234 1.858.902 2.688-.054.216-.09.433-.09.667 0 .722.306 1.39.83 1.93h2.976c-.09-.18.036-.288.577-.288.542.018.65.108.578.289h2.976c.524-.542.83-1.227.83-1.93 0-.235-.036-.452-.09-.668.631-.83 1.173-2.346.848-2.688zM6.778 6.483a1.163 1.163 0 0 1-1.154-1.155c0-.632.523-1.155 1.155-1.155.63 0 1.154.523 1.154 1.155 0 .631-.523 1.154-1.154 1.154zm3.392 0a1.163 1.163 0 0 1-1.154-1.155c0-.632.523-1.155 1.154-1.155.632 0 1.155.523 1.155 1.155 0 .631-.505 1.154-1.155 1.154z" clip-rule="evenodd" fill="#9b592d"/></g><path d="M4.739 15.346h7.455c.28 0 .506-.226.506-.505V7.385a.505.505 0 0 0-.506-.506H4.74a.505.505 0 0 0-.506.506v7.456c0 .279.227.505.506.505z" fill="#333"/><g clip-rule="evenodd" fill-rule="evenodd"><path d="M2.064 4.071c-.29 0-.576.044-.85.139 1.533.198 2.778.793 3.897 1.876-.499-1.173-1.795-2.012-3.047-2.015zm12.805 0c-1.252.003-2.548.842-3.047 2.015 1.119-1.082 2.363-1.678 3.897-1.876a2.581 2.581 0 0 0-.85-.139zm-13.065.834c-.55.01-1.084.148-1.547.44 1.732-.27 3.302.181 4.781 1.065-.744-.93-2.025-1.528-3.234-1.505zm13.324 0c-1.209-.023-2.49.575-3.235 1.505 1.48-.884 3.05-1.335 4.781-1.064a2.967 2.967 0 0 0-1.546-.441zm-12.625.894c-.73-.012-1.39.194-1.722.684 1.534-.487 2.868-.271 4.348.306-.63-.598-1.686-.974-2.626-.99zm11.927 0c-.94.016-1.997.392-2.626.99 1.48-.577 2.814-.793 4.348-.306-.332-.49-.991-.696-1.722-.684z" fill="#793000"/><path d="M3.704 5.725c-.451 0-.83.234-1.01.595h-.055c-.487 0-.902.361-.902.812 0 .631.65.974 1.245.758.36.523 1.137.559 1.425 0 .433-.018 1.137-.09 1.245-.758.072-.451-.397-.812-.902-.812h-.054c-.144-.36-.541-.595-.992-.595zm9.525 0c.451 0 .83.234 1.01.595h.055c.252 0 .902.361.902.812 0 .631-.65.974-1.245.758-.36.523-1.137.559-1.425 0-.433-.018-1.137-.09-1.245-.758-.072-.451.65-.812.902-.812h.054c.144-.36.541-.595.992-.595z" fill="#695050"/><path d="M10.13 6.048c.133 0 .24-.252.24-.577s-.107-.577-.24-.577-.24.252-.24.577.107.577.24.577z" fill="#c0c81f"/></g></g><path d="M8.732 12.602h2.679c.404 0 .404.606 0 .607H8.73c-.403-.001-.403-.606 0-.607zM5.51 9.332c-.266-.286.143-.695.429-.429l1.894 1.894a.303.303 0 0 1 0 .428L5.94 13.12c-.286.266-.695-.143-.429-.429l1.68-1.68z" fill="#fff"/></svg>

<?xml version="1.0" encoding="UTF-8" standalone="no"?>
<svg
   width="24"
   height="24"
   viewBox="0 0 24 24"
   fill="none"
   version="1.1"
   id="svg154"
   sodipodi:docname="kitty.svg"
   inkscape:version="1.2.2 (b0a8486541, 2022-12-01)"
   xmlns:inkscape="http://www.inkscape.org/namespaces/inkscape"
   xmlns:sodipodi="http://sodipodi.sourceforge.net/DTD/sodipodi-0.dtd"
   xmlns:xlink="http://www.w3.org/1999/xlink"
   xmlns="http://www.w3.org/2000/svg"
   xmlns:svg="http://www.w3.org/2000/svg"
   xmlns:sketch="http://www.bohemiancoding.com/sketch/ns">
  <sodipodi:namedview
     id="namedview156"
     pagecolor="#ffffff"
     bordercolor="#000000"
     borderopacity="1"
     inkscape:showpageshadow="0"
     inkscape:pageopacity="1"
     inkscape:pagecheckerboard="false"
     inkscape:deskcolor="#ffffff"
     showgrid="true"
     inkscape:zoom="22.627417"
     inkscape:cx="3.557631"
     inkscape:cy="9.1260969"
     inkscape:window-width="1920"
     inkscape:window-height="1052"
     inkscape:window-x="0"
     inkscape:window-y="0"
     inkscape:window-maximized="1"
     inkscape:current-layer="svg154"
     showguides="true"
     guidecolor="#ff0000"
     guideopacity="1"
     inkscape:lockguides="true"
     showborder="true"
     borderlayer="true">
    <inkscape:grid
       type="xygrid"
       id="grid356"
       color="#000000"
       opacity="0.10196078"
       empcolor="#000000"
       empopacity="0.10196078"
       snapvisiblegridlinesonly="true"
       enabled="true"
       visible="true"
       dotted="false" />
    <sodipodi:guide
       position="4,12"
       orientation="-1,0"
       id="guide764"
       inkscape:locked="true"
       inkscape:label=""
       inkscape:color="rgb(255,0,0)" />
    <sodipodi:guide
       position="5,12"
       orientation="1,0"
       id="guide2218"
       inkscape:locked="true" />
    <sodipodi:guide
       position="12,20"
       orientation="0,1"
       id="guide2220"
       inkscape:locked="true"
       inkscape:label=""
       inkscape:color="rgb(255,0,0)" />
    <sodipodi:guide
       position="12,5"
       orientation="0,-1"
       id="guide2222"
       inkscape:locked="true" />
    <sodipodi:guide
       position="12,4"
       orientation="0,-1"
       id="guide2224"
       inkscape:locked="true" />
    <sodipodi:guide
       position="19,12"
       orientation="1,0"
       id="guide2226"
       inkscape:locked="true" />
    <sodipodi:guide
       position="20,12"
       orientation="1,0"
       id="guide2228"
       inkscape:locked="true" />
    <sodipodi:guide
       position="12,19"
       orientation="0,-1"
       id="guide2230"
       inkscape:locked="true" />
    <sodipodi:guide
       position="12,12"
       orientation="1,0"
       id="guide765"
       inkscape:locked="true" />
    <sodipodi:guide
       position="12,12"
       orientation="0,-1"
       id="guide767"
       inkscape:locked="true" />
    <sodipodi:guide
       position="12,12"
       orientation="0.70710678,0.70710678"
       id="guide2266"
       inkscape:locked="true"
       inkscape:label=""
       inkscape:color="rgb(255,0,0)" />
    <sodipodi:guide
       position="12,12"
       orientation="-0.70710678,0.70710678"
       id="guide2994"
       inkscape:locked="true"
       inkscape:label=""
       inkscape:color="rgb(255,0,0)" />
  </sodipodi:namedview>
  <defs
     id="defs152">
    <radialGradient
       id="radialGradient66380"
       cx="0"
       cy="0"
       r="1"
       gradientUnits="userSpaceOnUse"
       gradientTransform="translate(12 1) rotate(90) scale(22)">
      <stop
         stop-color="#8FC8FF"
         id="stop66376"
         offset="0"
         style="stop-color:#528fff;stop-opacity:1;" />
      <stop
         offset="1"
         stop-color="#0056A8"
         id="stop66378"
         style="stop-color:#528fff;stop-opacity:1;" />
    </radialGradient>
    <radialGradient
       id="paint0_radial_29_23"
       cx="0"
       cy="0"
       r="1"
       gradientUnits="userSpaceOnUse"
       gradientTransform="translate(12 1) rotate(90) scale(22)">
      <stop
         stop-color="#8FC8FF"
         id="stop147"
         offset="0"
         style="stop-color:#f6f6f6;stop-opacity:1;" />
      <stop
         offset="1"
         stop-color="#0056A8"
         id="stop149"
         style="stop-color:#cfcfcf;stop-opacity:1;" />
    </radialGradient>
    <radialGradient
       id="paint0_radial_10_2"
       cx="0"
       cy="0"
       r="1"
       gradientUnits="userSpaceOnUse"
       gradientTransform="matrix(-10.999959,21.999967,-21.999967,-10.999959,17.5,1)"
       xlink:href="#paint0_radial_29_23">
      <stop
         stop-color="#777777"
         id="stop2847" />
      <stop
         offset="1"
         stop-color="#222222"
         id="stop2849" />
    </radialGradient>
  </defs>
  <path
     d="M 50,5 C 9.0909092,5 5,25.454546 5,50 5,82.727274 17.272728,95 50,95 82.727274,95 95,82.727274 95,50 95,25.454546 90.909093,5 50,5 Z"
     sketch:type="MSShapeGroup"
     id="path6"
     style="font-variation-settings:normal;display:inline;opacity:1;vector-effect:none;fill:#f2f2f2;fill-opacity:1;stroke-width:4.56656;stroke-linecap:butt;stroke-linejoin:miter;stroke-miterlimit:4;stroke-dasharray:none;stroke-dashoffset:0;stroke-opacity:1;-inkscape-stroke:none;stop-color:#000000;stop-opacity:1"
     sodipodi:nodetypes="sssss"
     inkscape:label="Shape"
     transform="matrix(0.24444444,0,0,0.24444444,-0.22222222,-0.22222222)"
     sodipodi:insensitive="true" />
  <g
     id="g113061"
     transform="matrix(0.9745995,0,0,0.9745995,3.749528,3.7483084)">
    <g
       stroke-width="0"
       id="g112511">
      <g
         fill-rule="evenodd"
         stroke-linecap="round"
         stroke-linejoin="round"
         id="g112499">
        <rect
           x="5.0910001"
           y="2.6140001"
           width="7.1810002"
           height="5.289"
           ry="0"
           fill="#ffffff"
           id="rect112493" />
        <path
           d="m 6.777,6.048 c 0.133,0 0.239,-0.252 0.239,-0.577 0,-0.325 -0.106,-0.577 -0.24,-0.577 -0.134,0 -0.239,0.252 -0.239,0.577 0,0.325 0.107,0.577 0.24,0.577 z"
           clip-rule="evenodd"
           fill="#c0c81f"
           id="path112495" />
        <path
           d="M 13.634,1.72 C 13.309,1.377 11.83,1.792 10.928,2.351 A 5.407,5.407 0 0 0 8.474,1.774 C 7.554,1.774 6.706,1.99 6.003,2.351 5.101,1.791 3.603,1.359 3.297,1.72 2.972,2.08 3.531,3.578 4.199,4.408 4.145,4.624 4.109,4.841 4.109,5.075 c 0,0.722 0.306,1.39 0.83,1.93 H 7.915 C 7.825,6.825 7.951,6.717 8.492,6.717 9.034,6.735 9.142,6.825 9.07,7.006 h 2.976 c 0.524,-0.542 0.83,-1.227 0.83,-1.93 0,-0.235 -0.036,-0.452 -0.09,-0.668 0.631,-0.83 1.173,-2.346 0.848,-2.688 z M 6.778,6.483 A 1.163,1.163 0 0 1 5.624,5.328 c 0,-0.632 0.523,-1.155 1.155,-1.155 0.63,0 1.154,0.523 1.154,1.155 0,0.631 -0.523,1.154 -1.154,1.154 z m 3.392,0 A 1.163,1.163 0 0 1 9.016,5.328 c 0,-0.632 0.523,-1.155 1.154,-1.155 0.632,0 1.155,0.523 1.155,1.155 0,0.631 -0.505,1.154 -1.155,1.154 z"
           clip-rule="evenodd"
           fill="#9b592d"
           id="path112497" />
      </g>
      <path
         d="m 4.739,15.346 h 7.455 c 0.28,0 0.506,-0.226 0.506,-0.505 V 7.385 A 0.505,0.505 0 0 0 12.194,6.879 H 4.74 A 0.505,0.505 0 0 0 4.234,7.385 v 7.456 c 0,0.279 0.227,0.505 0.506,0.505 z"
         fill="#333333"
         id="path112501" />
      <g
         clip-rule="evenodd"
         fill-rule="evenodd"
         id="g112509">
        <path
           d="M 2.064,4.071 C 1.774,4.071 1.488,4.115 1.214,4.21 2.747,4.408 3.992,5.003 5.111,6.086 4.612,4.913 3.316,4.074 2.064,4.071 Z m 12.805,0 C 13.617,4.074 12.321,4.913 11.822,6.086 12.941,5.004 14.185,4.408 15.719,4.21 A 2.581,2.581 0 0 0 14.869,4.071 Z M 1.804,4.905 C 1.254,4.915 0.72,5.053 0.257,5.345 1.989,5.075 3.559,5.526 5.038,6.41 4.294,5.48 3.013,4.882 1.804,4.905 Z m 13.324,0 C 13.919,4.882 12.638,5.48 11.893,6.41 13.373,5.526 14.943,5.075 16.674,5.346 A 2.967,2.967 0 0 0 15.128,4.905 Z M 2.503,5.799 C 1.773,5.787 1.113,5.993 0.781,6.483 2.315,5.996 3.649,6.212 5.129,6.789 4.499,6.191 3.443,5.815 2.503,5.799 Z m 11.927,0 C 13.49,5.815 12.433,6.191 11.804,6.789 13.284,6.212 14.618,5.996 16.152,6.483 15.82,5.993 15.161,5.787 14.43,5.799 Z"
           fill="#793000"
           id="path112503" />
        <path
           d="m 3.704,5.725 c -0.451,0 -0.83,0.234 -1.01,0.595 H 2.639 c -0.487,0 -0.902,0.361 -0.902,0.812 0,0.631 0.65,0.974 1.245,0.758 0.36,0.523 1.137,0.559 1.425,0 C 4.84,7.872 5.544,7.8 5.652,7.132 5.724,6.681 5.255,6.32 4.75,6.32 H 4.696 C 4.552,5.96 4.155,5.725 3.704,5.725 Z m 9.525,0 c 0.451,0 0.83,0.234 1.01,0.595 h 0.055 c 0.252,0 0.902,0.361 0.902,0.812 0,0.631 -0.65,0.974 -1.245,0.758 -0.36,0.523 -1.137,0.559 -1.425,0 C 12.093,7.872 11.389,7.8 11.281,7.132 11.209,6.681 11.931,6.32 12.183,6.32 h 0.054 c 0.144,-0.36 0.541,-0.595 0.992,-0.595 z"
           fill="#695050"
           id="path112505" />
        <path
           d="m 10.13,6.048 c 0.133,0 0.24,-0.252 0.24,-0.577 0,-0.325 -0.107,-0.577 -0.24,-0.577 -0.133,0 -0.24,0.252 -0.24,0.577 0,0.325 0.107,0.577 0.24,0.577 z"
           fill="#c0c81f"
           id="path112507" />
      </g>
    </g>
    <path
       d="m 8.732,12.602 h 2.679 c 0.404,0 0.404,0.606 0,0.607 H 8.73 c -0.403,-10e-4 -0.403,-0.606 0,-0.607 z M 5.51,9.332 C 5.244,9.046 5.653,8.637 5.939,8.903 l 1.894,1.894 a 0.303,0.303 0 0 1 0,0.428 L 5.94,13.12 C 5.654,13.386 5.245,12.977 5.511,12.691 l 1.68,-1.68 z"
       fill="#ffffff"
       id="path112513" />
  </g>
</svg>
